X:1
T:[ID 3-15]
T:[ID 3-15]
T:Bezeichnung standardisiert: Allegro Allegro 10.
T:Urheber unbekannt Datum in der hier transkribierten schriftlichen Quelle: 1767
C:Urheber unbekannt
C:Datum in der hier transkribierten schriftlichen Quelle: 1767
%%score 1 2
L:1/8
M:2/4
K:D
V:1 treble nm="Primo"
V:2 treble nm="Secondo"
V:1
 d2 d2 | (de)(ed) | f2 f2 | (fg)(gf) | a2 a2 | ab ba/g/ | fa ag/f/ | gb ba/g/ | fa ag/f/ |{f} e4 :: %10
 e2 e2 | (ed)(dc) | f2 f2 | (fe)(ed) | ABBA | dffe | b4 | b/a/g/f/ g/f/e/d/ | b4 | %19
 b/a/g/f/ g/f/e/d/ | dd'd'c' | d'4 :| %22
V:2
 !fermata!F2 F2 | FGGF | d2 d2 | deed | f2 f2 | fg gf/e/ | df fe/d/ | eg gf/e/ | df fe/d/ | A4 :: %10
 c2 c2 | cBBA | d2 d2 | dccB | FGGF | Bddc | g/d/B/G/ d/B/G/D/ | g z e z | g/d/B/G/ d/B/G/D/ | %19
 g z e z | Fffe |{e} f4 :| %22

